dist/common.blocks/icon/icon__vk.svg

<?xml version="1.0" encoding="UTF-8"?>
<svg xmlns="http://www.w3.org/2000/svg" xmlns:xlink="http://www.w3.org/1999/xlink" viewBox="0 0 26 26" version="1.1" width="50px" height="50px">
<g id="surface1" fill="#f11f60">
<path style=" fill-rule:evenodd;" d="M 21.269531 0 L 5.464844 0 C 2.660156 0 0 2.199219 0 5 L 0 20.8125 C 0 23.613281 2.660156 26 5.464844 26 L 21.273438 26 C 24.074219 26 26 23.613281 26 20.8125 L 26 5 C 26 2.199219 24.074219 0 21.269531 0 Z M 20.3125 15.007813 C 21.734375 16.328125 22.03125 16.972656 22.078125 17.050781 C 22.667969 18.03125 21.425781 18.105469 21.425781 18.105469 L 19.050781 18.140625 C 19.050781 18.140625 18.539063 18.242188 17.867188 17.777344 C 16.976563 17.171875 16.140625 15.585938 15.484375 15.789063 C 14.824219 16 14.84375 17.429688 14.84375 17.429688 C 14.84375 17.429688 14.847656 17.679688 14.699219 17.84375 C 14.535156 18.015625 14.214844 18 14.214844 18 L 13.148438 18 C 13.148438 18 10.800781 18.195313 8.734375 16.042969 C 6.480469 13.695313 4.492188 9.066406 4.492188 9.066406 C 4.492188 9.066406 4.378906 8.773438 4.5 8.625 C 4.640625 8.460938 5.023438 8.453125 5.023438 8.453125 L 7.566406 8.441406 C 7.566406 8.441406 7.804688 8.484375 7.976563 8.609375 C 8.117188 8.710938 8.199219 8.90625 8.199219 8.90625 C 8.199219 8.90625 8.609375 9.949219 9.152344 10.886719 C 10.214844 12.722656 10.710938 13.125 11.070313 12.929688 C 11.597656 12.640625 11.4375 10.335938 11.4375 10.335938 C 11.4375 10.335938 11.449219 9.496094 11.171875 9.121094 C 10.960938 8.835938 10.5625 8.75 10.382813 8.726563 C 10.238281 8.707031 10.476563 8.375 10.78125 8.226563 C 11.238281 8.003906 12.046875 7.988281 13 8 C 13.742188 8.007813 13.957031 8.054688 14.246094 8.125 C 15.125 8.335938 14.828125 9.152344 14.828125 11.113281 C 14.828125 11.742188 14.714844 12.625 15.167969 12.917969 C 15.363281 13.042969 15.839844 12.9375 17.027344 10.914063 C 17.59375 9.953125 18.015625 8.828125 18.015625 8.828125 C 18.015625 8.828125 18.109375 8.625 18.253906 8.539063 C 18.402344 8.453125 18.601563 8.480469 18.601563 8.480469 L 21.277344 8.460938 C 21.277344 8.460938 22.078125 8.367188 22.210938 8.730469 C 22.347656 9.109375 21.910156 10 20.816406 11.457031 C 19.019531 13.847656 18.820313 13.625 20.3125 15.007813 Z "/>
</g>
</svg>

<svg xmlns="http://www.w3.org/2000/svg" viewBox="0 0 26 26" width="50" height="50"><path d="M21.27 0H5.465C2.66 0 0 2.2 0 5v15.813C0 23.613 2.66 26 5.465 26h15.808C24.074 26 26 23.613 26 20.812V5c0-2.8-1.926-5-4.73-5zm-.957 15.008c1.421 1.32 1.718 1.965 1.765 2.043.59.98-.652 1.054-.652 1.054l-2.375.036s-.512.101-1.184-.364c-.89-.605-1.726-2.191-2.383-1.988-.66.211-.64 1.64-.64 1.64s.004.25-.145.415c-.164.172-.484.156-.484.156h-1.067s-2.347.195-4.414-1.957C6.48 13.695 4.492 9.066 4.492 9.066s-.113-.293.008-.441c.14-.164.523-.172.523-.172l2.543-.012s.239.043.41.168c.141.102.223.297.223.297s.41 1.043.953 1.98c1.063 1.837 1.559 2.239 1.918 2.044.528-.29.367-2.594.367-2.594s.012-.84-.265-1.215c-.211-.285-.61-.371-.79-.394-.144-.02.095-.352.4-.5.456-.223 1.265-.239 2.218-.227.742.008.957.055 1.246.125.879.21.582 1.027.582 2.988 0 .63-.113 1.512.34 1.805.195.125.672.02 1.86-2.004.566-.96.988-2.086.988-2.086s.093-.203.238-.289c.148-.086.348-.059.348-.059l2.675-.02s.801-.093.934.27c.137.38-.3 1.27-1.395 2.727-1.796 2.39-1.996 2.168-.503 3.55z" fill-rule="evenodd" fill="#f11f60"/></svg>
